packages/components/Atoms/Icon/assets/img/rpl_icon_pause.svg

<svg width="20" height="20" viewBox="0 0 20 20" overflow="visible" xmlns="http://www.w3.org/2000/svg">
  <path d="M18 10C18 5.58248 14.4175 2 10 2C5.58248 2 2 5.58248 2 10C2 14.4175 5.58248 18 10 18C14.4175 18 18 14.4175 18 10ZM20 10C20 15.5221 15.5221 20 10 20C4.47792 20 0 15.5221 0 10C0 4.47792 4.47792 0 10 0C15.5221 0 20 4.47792 20 10Z"
    fill="inherit" />
  <path fill-rule="evenodd" clip-rule="evenodd" d="M8 7C8.55228 7 9 7.44772 9 8V12C9 12.5523 8.55228 13 8 13C7.44772 13 7 12.5523 7 12V8C7 7.44772 7.44772 7 8 7Z"
    fill="inherit" />
  <path fill-rule="evenodd" clip-rule="evenodd" d="M12 7C12.5523 7 13 7.44772 13 8V12C13 12.5523 12.5523 13 12 13C11.4477 13 11 12.5523 11 12V8C11 7.44772 11.4477 7 12 7Z"
    fill="inherit" />
</svg>

<svg width="20" height="20" overflow="visible" xmlns="http://www.w3.org/2000/svg"><path d="M18 10a8.001 8.001 0 00-16 0 8.001 8.001 0 0016 0zm2 0c0 5.522-4.478 10-10 10S0 15.522 0 10 4.478 0 10 0s10 4.478 10 10z" fill="inherit"/><path fill-rule="evenodd" clip-rule="evenodd" d="M8 7a1 1 0 011 1v4a1 1 0 11-2 0V8a1 1 0 011-1zM12 7a1 1 0 011 1v4a1 1 0 11-2 0V8a1 1 0 011-1z" fill="inherit"/></svg>
